public/img/icons/content-manager-icon.svg

<svg fill="none" height="56" viewBox="0 0 56 56" width="56" xmlns="http://www.w3.org/2000/svg" xmlns:xlink="http://www.w3.org/1999/xlink"><clipPath id="a"><path d="m12 14h32v14h-32z"/></clipPath><g stroke="#000" stroke-width="2"><rect fill="#fff" height="38" rx="2" width="54" x="1" y="1"/><path d="m36 51v4h-16v-16h16v8" stroke-linecap="round"/><path d="m12 55h32" stroke-linecap="round"/></g><path d="m20 39h16v6h-16z" fill="#000"/><g clip-path="url(#a)" clip-rule="evenodd" fill="#000" fill-rule="evenodd"><path d="m28.73 25.941c0 .662-.5401 1.199-1.2001 1.199s-1.1999-.539-1.1999-1.203v-8.398c0-.496-.2801-1.129-.6401-1.129-.48 0-.67-.0779-.9.2231h-.01c-.19.261-.2899.5819-.2799.9059v8.398c0 .664-.5401 1.203-1.2001 1.203s-1.1999-.539-1.1999-1.203v-8.398c0-1.801 1.23-3.5309 3.03-3.5309.94 0 1.5899-.0001 2.3999.7179.8-.718 1.46-.7179 2.4-.7179 1.8 0 3.0401 1.7219 3.0401 3.5309v8.398c0 .664-.54 1.203-1.2 1.203s-1.2001-.539-1.2001-1.203v-8.398c0-.496-.28-1.129-.64-1.129-.48 0-.67-.0779-.9.2231-.19.261-.2999.5819-.2799.9059l-.02 8.398z"/><path d="m19.77 17.8c0 .661-.5401 1.2-1.2001 1.2s-1.1999-.539-1.1999-1.2c0-1.398-1.7501-1.8-2.5501-.98v-.004c-.26.262-.41.613-.4.984v5.551c0 1.383 1.7401 1.789 2.5601.981v-.004c.25-.262.39-.613.39-.981 0-.66.5399-1.199 1.1999-1.199.67 0 1.2001.539 1.2001 1.199 0 2.102-1.7 3.801-3.79 3.801-1.16 0-2.08-.328-2.87-1.117-.71-.707-1.11-1.672-1.11-2.676v-5.555c0-2.101 1.6999-3.8 3.7999-3.8 1.16 0 2.07.324 2.86 1.113v-.004c.71.711 1.1101 1.676 1.1101 2.684z"/><path d="m43.05 17.89c0 .66-.54 1.199-1.2 1.199s-1.2001-.539-1.2001-1.199c0-.601-.3599-1.14-.9199-1.371-.55-.23-1.19-.101-1.61.324-.43.422-.55 1.059-.32 1.614.22.554.77.918 1.36.918 3.45 0 5.19 4.183 2.75 6.625-2.43 2.441-6.63.703-6.63-2.743 0-.664.54-1.199 1.2-1.199s1.2.535 1.2 1.199c0 .598.37 1.141.92 1.368.55.23 1.19.101 1.61-.325.43-.425.55-1.062.32-1.617-.23-.551-.77-.91-1.37-.91-3.45 0-5.18-4.191-2.74-6.629 2.43-2.437 6.63-.703 6.63 2.742z"/></g></svg>

<svg width="56" height="56" viewBox="0 0 56 56" fill="none" xmlns="http://www.w3.org/2000/svg">
<rect x="1" y="1" width="54" height="38" rx="2" fill="white" stroke="black" stroke-width="2"/>
<path d="M36 51V55H20V39H36V47" stroke="black" stroke-width="2" stroke-linecap="round"/>
<path d="M12 55H44" stroke="black" stroke-width="2" stroke-linecap="round"/>
<rect x="20" y="39" width="16" height="6" fill="black"/>
<g clip-path="url(#clip0_289_131)">
<path fill-rule="evenodd" clip-rule="evenodd" d="M28.73 25.941C28.73 26.603 28.1899 27.14 27.5299 27.14C26.8699 27.14 26.33 26.601 26.33 25.937V17.539C26.33 17.043 26.0499 16.41 25.6899 16.41C25.2099 16.41 25.0199 16.3321 24.7899 16.6331H24.7799C24.5899 16.8941 24.49 17.215 24.5 17.539V25.937C24.5 26.601 23.9599 27.14 23.2999 27.14C22.6399 27.14 22.1 26.601 22.1 25.937V17.539C22.1 15.738 23.33 14.0081 25.13 14.0081C26.07 14.0081 26.7199 14.008 27.5299 14.726C28.3299 14.008 28.9899 14.0081 29.9299 14.0081C31.7299 14.0081 32.97 15.73 32.97 17.539V25.937C32.97 26.601 32.43 27.14 31.77 27.14C31.11 27.14 30.5699 26.601 30.5699 25.937V17.539C30.5699 17.043 30.2899 16.41 29.9299 16.41C29.4499 16.41 29.2599 16.3321 29.0299 16.6331C28.8399 16.8941 28.73 17.215 28.75 17.539L28.73 25.937V25.941Z" fill="black"/>
<path fill-rule="evenodd" clip-rule="evenodd" d="M19.77 17.8C19.77 18.461 19.2299 19 18.5699 19C17.9099 19 17.37 18.461 17.37 17.8C17.37 16.402 15.6199 16 14.8199 16.82V16.816C14.5599 17.078 14.4099 17.429 14.4199 17.8V23.351C14.4199 24.734 16.16 25.14 16.98 24.332V24.328C17.23 24.066 17.37 23.715 17.37 23.347C17.37 22.687 17.9099 22.148 18.5699 22.148C19.2399 22.148 19.77 22.687 19.77 23.347C19.77 25.449 18.07 27.148 15.98 27.148C14.82 27.148 13.9 26.82 13.11 26.031C12.4 25.324 12 24.359 12 23.355V17.8C12 15.699 13.6999 14 15.7999 14C16.9599 14 17.8699 14.324 18.6599 15.113V15.109C19.3699 15.82 19.77 16.785 19.77 17.793V17.8Z" fill="black"/>
<path fill-rule="evenodd" clip-rule="evenodd" d="M43.05 17.89C43.05 18.55 42.51 19.089 41.85 19.089C41.19 19.089 40.6499 18.55 40.6499 17.89C40.6499 17.289 40.29 16.75 39.73 16.519C39.18 16.289 38.54 16.418 38.12 16.843C37.69 17.265 37.57 17.902 37.8 18.457C38.02 19.011 38.57 19.375 39.16 19.375C42.61 19.375 44.35 23.558 41.91 26C39.48 28.441 35.28 26.703 35.28 23.257C35.28 22.593 35.82 22.058 36.48 22.058C37.14 22.058 37.68 22.593 37.68 23.257C37.68 23.855 38.05 24.398 38.6 24.625C39.15 24.855 39.79 24.726 40.21 24.3C40.64 23.875 40.76 23.238 40.53 22.683C40.3 22.132 39.76 21.773 39.16 21.773C35.71 21.773 33.98 17.582 36.42 15.144C38.85 12.707 43.05 14.441 43.05 17.886V17.89Z" fill="black"/>
</g>
<defs>
<clipPath id="clip0_289_131">
<rect width="32" height="14" fill="white" transform="translate(12 14)"/>
</clipPath>
</defs>
</svg>
